tools/download-figma-icons/icons/outlined-large/solar-plant.svg

<svg width="64" height="64" viewBox="0 0 64 64" fill="none" xmlns="http://www.w3.org/2000/svg">
<path fill-rule="evenodd" clip-rule="evenodd" d="M32.5001 8C33.3281 8 34.0001 7.328 34.0001 6.5V1.5C34.0001 0.672 33.3281 0 32.5001 0C31.6721 0 31.0001 0.672 31.0001 1.5V6.5C31.0001 7.328 31.6721 8 32.5001 8ZM37.0001 17.5C37.0001 15.019 34.9811 13 32.5001 13C30.0191 13 28.0001 15.019 28.0001 17.5C28.0001 19.981 30.0191 22 32.5001 22C34.9811 22 37.0001 19.981 37.0001 17.5ZM40.0001 17.5C40.0001 21.636 36.6361 25 32.5001 25C28.3641 25 25.0001 21.636 25.0001 17.5C25.0001 13.364 28.3641 10 32.5001 10C36.6361 10 40.0001 13.364 40.0001 17.5ZM40.6807 52.5L41.4297 61H53.5787L51.4537 52.5H40.6807ZM23.9887 52.5H13.5457L11.4207 61H23.2407L23.9887 52.5ZM25.0017 41H16.4207L14.2957 49.5H24.2527L25.0017 41ZM38.4187 61L37.6697 52.5H26.9997L26.2507 61H38.4187ZM28.0137 41L27.2647 49.5H37.4057L36.6567 41H28.0137ZM40.4157 49.5H50.7037L48.5787 41H39.6667L40.4157 49.5ZM51.2047 39.136L56.9547 62.136C57.0677 62.584 56.9667 63.059 56.6827 63.423C56.3987 63.787 55.9617 64 55.4997 64H9.49973C9.03773 64 8.60173 63.787 8.31773 63.423C8.03373 63.059 7.93273 62.584 8.04473 62.136L13.7947 39.136C13.9617 38.469 14.5617 38 15.2497 38H49.7497C50.4387 38 51.0377 38.469 51.2047 39.136ZM24.7222 11.2212C24.3382 11.2212 23.9542 11.0752 23.6612 10.7822L20.1262 7.2472C19.5402 6.6612 19.5402 5.7122 20.1262 5.1262C20.7122 4.5402 21.6612 4.5402 22.2472 5.1262L25.7822 8.6612C26.3682 9.2472 26.3682 10.1962 25.7822 10.7822C25.4892 11.0752 25.1052 11.2212 24.7222 11.2212ZM16.5001 19H21.5001C22.3281 19 23.0001 18.328 23.0001 17.5C23.0001 16.672 22.3281 16 21.5001 16H16.5001C15.6721 16 15.0001 16.672 15.0001 17.5C15.0001 18.328 15.6721 19 16.5001 19ZM20.1262 27.7528L23.6612 24.2178C24.2472 23.6318 25.1962 23.6318 25.7822 24.2178C26.3682 24.8038 26.3682 25.7528 25.7822 26.3388L22.2472 29.8738C21.9542 30.1668 21.5702 30.3138 21.1862 30.3138C20.8032 30.3138 20.4192 30.1668 20.1262 29.8738C19.5402 29.2878 19.5402 28.3388 20.1262 27.7528ZM31.0001 28.5V33.5C31.0001 34.328 31.6721 35 32.5001 35C33.3281 35 34.0001 34.328 34.0001 33.5V28.5C34.0001 27.672 33.3281 27 32.5001 27C31.6721 27 31.0001 27.672 31.0001 28.5ZM39.2178 26.3388C38.6318 25.7528 38.6318 24.8038 39.2178 24.2178C39.8038 23.6318 40.7528 23.6318 41.3388 24.2178L44.8738 27.7528C45.4598 28.3388 45.4598 29.2878 44.8738 29.8738C44.5808 30.1668 44.1968 30.3138 43.8138 30.3138C43.4298 30.3138 43.0458 30.1668 42.7528 29.8738L39.2178 26.3388ZM42.0001 17.5C42.0001 18.328 42.6721 19 43.5001 19H48.5001C49.3281 19 50.0001 18.328 50.0001 17.5C50.0001 16.672 49.3281 16 48.5001 16H43.5001C42.6721 16 42.0001 16.672 42.0001 17.5ZM41.3394 10.7827C41.0464 11.0757 40.6624 11.2217 40.2784 11.2217C39.8944 11.2217 39.5104 11.0757 39.2174 10.7827C38.6324 10.1967 38.6324 9.2467 39.2174 8.6607L42.7534 5.1257C43.3394 4.5397 44.2884 4.5397 44.8744 5.1257C45.4604 5.7117 45.4604 6.6607 44.8744 7.2467L41.3394 10.7827Z" fill="black"/>
</svg>

<svg width="64" height="64" viewBox="0 0 64 64" fill="none" xmlns="http://www.w3.org/2000/svg"><path fill-rule="evenodd" clip-rule="evenodd" d="M32.5 8A1.5 1.5 0 0 0 34 6.5v-5a1.5 1.5 0 0 0-3 0v5A1.5 1.5 0 0 0 32.5 8Zm4.5 9.5c0-2.481-2.019-4.5-4.5-4.5a4.505 4.505 0 0 0-4.5 4.5c0 2.481 2.02 4.5 4.5 4.5 2.481 0 4.5-2.019 4.5-4.5Zm3 0c0 4.136-3.364 7.5-7.5 7.5S25 21.636 25 17.5s3.364-7.5 7.5-7.5 7.5 3.364 7.5 7.5Zm.68 35 .75 8.5h12.149l-2.125-8.5H40.68Zm-16.691 0H13.546L11.42 61h11.82l.748-8.5ZM25.002 41H16.42l-2.125 8.5h9.957l.749-8.5Zm13.417 20-.75-8.5H27l-.748 8.5H38.42ZM28.014 41l-.75 8.5h10.142l-.75-8.5h-8.642Zm12.402 8.5h10.288L48.579 41h-8.912l.749 8.5Zm10.789-10.364 5.75 23A1.497 1.497 0 0 1 55.5 64h-46a1.5 1.5 0 0 1-1.455-1.864l5.75-23A1.5 1.5 0 0 1 15.25 38h34.5a1.5 1.5 0 0 1 1.455 1.136ZM24.722 11.221c-.384 0-.768-.146-1.06-.439l-3.536-3.535a1.5 1.5 0 1 1 2.121-2.12l3.535 3.534a1.5 1.5 0 0 1-1.06 2.56ZM16.5 19h5a1.5 1.5 0 0 0 0-3h-5a1.5 1.5 0 0 0 0 3Zm3.626 8.753 3.535-3.535a1.5 1.5 0 1 1 2.121 2.12l-3.535 3.536a1.496 1.496 0 0 1-2.12 0 1.5 1.5 0 0 1 0-2.121ZM31 28.5v5a1.5 1.5 0 0 0 3 0v-5a1.5 1.5 0 0 0-3 0Zm8.218-2.161a1.5 1.5 0 1 1 2.12-2.121l3.536 3.535a1.5 1.5 0 1 1-2.121 2.12l-3.535-3.534ZM42 17.5a1.5 1.5 0 0 0 1.5 1.5h5a1.5 1.5 0 0 0 0-3h-5a1.5 1.5 0 0 0-1.5 1.5Zm-.66-6.717a1.495 1.495 0 0 1-1.062.439 1.502 1.502 0 0 1-1.061-2.561l3.536-3.535a1.5 1.5 0 1 1 2.121 2.12l-3.535 3.537Z" fill="currentColor"/></svg>
